X:1
T:The Birken Tree
M:4/4
L:1/8
K:D
 A| Be ef d3/2 c/2 BA| B3/2 c/2 de d/2 B3/2 AA| Be ed f3/2 e/2 dc|\
 d3/2 B/2 AF d c2| d| BE EFB/2-c/2 d2 B| A2 FED/2-A/2 d2 c| BE EFB/2-c/2 d2 e|\
 dB AF E2 E||
